demos/barber/images/icons/chair.svg

<?xml version="1.0" encoding="UTF-8" standalone="no"?><!DOCTYPE svg PUBLIC "-//W3C//DTD SVG 1.1//EN" "http://www.w3.org/Graphics/SVG/1.1/DTD/svg11.dtd"><svg width="100%" height="100%" viewBox="0 0 53 69" version="1.1" xmlns="http://www.w3.org/2000/svg" xmlns:xlink="http://www.w3.org/1999/xlink" xml:space="preserve" style="fill-rule:evenodd;clip-rule:evenodd;stroke-linejoin:round;stroke-miterlimit:1.41421;"><g id="__1"><path d="M38.27,32.86c0,1.487 -1.223,2.71 -2.71,2.71l-18.63,0c-1.487,0 -2.71,-1.223 -2.71,-2.71l-1.62,-30.15c0,-1.487 1.223,-2.71 2.71,-2.71l21.88,0c1.487,0 2.71,1.223 2.71,2.71l-1.63,30.15Z" style="fill:#005a76;fill-rule:nonzero;"/><path d="M49.21,20.43l-4.77,0l-1.63,15.85c0,1.805 -1.485,3.29 -3.29,3.29l-26.52,0c-1.805,0 -3.29,-1.485 -3.29,-3.29l-1.65,-15.85l-4.77,0c-1.801,0 -3.285,1.479 -3.29,3.28l3.79,21c0,1.801 1.479,3.285 3.28,3.29l38.93,0c1.801,-0.005 3.28,-1.489 3.28,-3.29l3.25,-21c-0.005,-1.801 -1.489,-3.28 -3.29,-3.28c-0.01,0 -0.02,0 -0.03,0l0,0Z" style="fill:#005a76;fill-rule:nonzero;"/><path d="M31.31,51.25c0,1.49 -1.9,2.71 -4.25,2.71l-1.62,0c-2.35,0 -4.25,-1.21 -4.25,-2.71l0,-4.4c0,-1.5 1.9,-2.71 4.25,-2.71l1.61,0c2.35,0 4.25,1.21 4.25,2.71l0.01,4.4Z" style="fill:#005a76;fill-rule:nonzero;"/><path d="M14.3,65.42c0,1.69 -1.39,3.08 -3.08,3.08c-1.69,0 -3.08,-1.39 -3.08,-3.08l0,-3.31c0,-0.01 0,-0.02 0,-0.03c0,-1.69 1.39,-3.08 3.08,-3.08c0,0 0,0 0,0c1.69,0 3.08,1.39 3.08,3.08l0,3.34Z" style="fill:#005a76;fill-rule:nonzero;"/><path d="M29.32,65.42c0,1.69 -1.39,3.08 -3.08,3.08c-1.69,0 -3.08,-1.39 -3.08,-3.08l0,-3.31c0,-0.01 0,-0.02 0,-0.03c0,-1.69 1.39,-3.08 3.08,-3.08c0.003,0 0.007,0 0.01,0c1.69,0 3.08,1.39 3.08,3.08l-0.01,3.34Z" style="fill:#005a76;fill-rule:nonzero;"/><path d="M44.59,65.42c0,1.69 -1.39,3.08 -3.08,3.08c-1.69,0 -3.08,-1.39 -3.08,-3.08l0,-3.31c0,-0.01 0,-0.02 0,-0.03c0,-1.69 1.39,-3.08 3.08,-3.08c0.003,0 0.007,0 0.01,0c1.69,0 3.08,1.39 3.08,3.08l-0.01,3.34Z" style="fill:#005a76;fill-rule:nonzero;"/><path d="M22.856,49.844l-13.032,11.04l2.799,3.304l13.032,-11.04l-2.799,-3.304Z" style="fill:#005a76;"/><path d="M29.635,49.847l-2.799,3.304l13.033,11.04l2.798,-3.304l-13.032,-11.04Z" style="fill:#005a76;"/><rect x="24.08" y="51.5" width="4.33" height="12.27" style="fill:#005a76;"/></g></svg>

<svg xmlns="http://www.w3.org/2000/svg" viewBox="0 0 52.49 68.5"><defs><style>.cls-1{fill:#be9355;}</style></defs><title>chair</title><g id="Layer_2" data-name="Layer 2"><g id="_1" data-name=" 1"><path class="cls-1" d="M38.27,32.86a2.71,2.71,0,0,1-2.71,2.71H16.93a2.71,2.71,0,0,1-2.71-2.71L12.6,2.71A2.71,2.71,0,0,1,15.31,0H37.19a2.71,2.71,0,0,1,2.71,2.71Z"/><path class="cls-1" d="M49.21,20.43H44.44L42.81,36.28a3.29,3.29,0,0,1-3.29,3.29H13a3.29,3.29,0,0,1-3.29-3.29L8.06,20.43H3.29A3.29,3.29,0,0,0,0,23.71l3.79,21A3.29,3.29,0,0,0,7.07,48H46a3.29,3.29,0,0,0,3.28-3.29l3.25-21A3.29,3.29,0,0,0,49.21,20.43Z"/><path class="cls-1" d="M31.31,51.25c0,1.49-1.9,2.71-4.25,2.71H25.44c-2.35,0-4.25-1.21-4.25-2.71v-4.4c0-1.5,1.9-2.71,4.25-2.71h1.61c2.35,0,4.25,1.21,4.25,2.71Z"/><path class="cls-1" d="M14.3,65.42a3.08,3.08,0,0,1-3.08,3.08h0a3.08,3.08,0,0,1-3.08-3.08V62.11A3.08,3.08,0,0,1,11.22,59h0a3.08,3.08,0,0,1,3.08,3.08Z"/><path class="cls-1" d="M29.32,65.42a3.08,3.08,0,0,1-3.08,3.08h0a3.08,3.08,0,0,1-3.08-3.08V62.11A3.08,3.08,0,0,1,26.25,59h0a3.08,3.08,0,0,1,3.08,3.08Z"/><path class="cls-1" d="M44.59,65.42a3.08,3.08,0,0,1-3.08,3.08h0a3.08,3.08,0,0,1-3.08-3.08V62.11A3.08,3.08,0,0,1,41.52,59h0a3.08,3.08,0,0,1,3.08,3.08Z"/><rect class="cls-1" x="9.2" y="54.85" width="17.08" height="4.33" transform="translate(-32.65 24.98) rotate(-40.27)"/><rect class="cls-1" x="32.59" y="48.48" width="4.33" height="17.08" transform="translate(-31.22 46.68) rotate(-49.73)"/><rect class="cls-1" x="24.08" y="51.5" width="4.33" height="12.27"/></g></g></svg>
